X:31
T:Pirate,The,3parts. JNu.31
T:Roxiana,aka. JNu.31
M:6/8
L:1/8
Q:3/8=110
S:James Nuttall MS,c1830?,Rossendale,East Lancs.
R:.Quadrille
O:England
A:East Lancashire
N:This identical tune appears as no 34 in the collection under the title
N:..CGP
Z:vmp.Manchester Morris Men
V:1
V:2
V:3 clef=bass
K:A
[V:1] |: e | a2e cde | f2f agf | efe edc | cBB Beg |
[V:2] |: c | e2c ABc | d2d fed | cdc cBA | AGG G2c |
[V:3] |: A, | A,2A,A,2A, | A,2A,A,2A, | A,,2A,,A,,2A,, | E,2E,E,2E, |
%
[V:1] a2e cde | f2f agf | efe dcB | A2a a2 😐
[V:2] e2c ABc | d2d fed | cdc BAG | A2AA2 😐
[V:3] A,2A,A,2A, | D,3D,3 | E,3E,3 | A,,C,E,A,,2 😐
%
[V:1] |: c | d3Bcd | c2e A2c | d3 Bcd | c2e A2a |
[V:2] |: A | B3GAB | A2cE2A | B3GAB | A2cE2E |
[V:3] |: z | A,,2zA,,2z | A,,2zA,,2z | A,,2zA,,2z | A,,2zA,,2z |
%
[V:1] g2a f2a | e2a d2b | gfg efg | a2A A2 😐
[V:2] E3D3 | C3B,3 | EDE CDE | C2CC2 😐
[V:3] B,,2zA,,2z | A,,2zB,,2z | D,2D,E,2E, | A,,2A,,A,,2 😐

